assets/images/services/value-5.svg

<?xml version="1.0" encoding="UTF-8" standalone="no"?>
<svg width="31px" height="50px" viewBox="0 0 31 50" version="1.1" xmlns="http://www.w3.org/2000/svg" xmlns:xlink="http://www.w3.org/1999/xlink">
    <!-- Generator: sketchtool 46 (44423) - http://www.bohemiancoding.com/sketch -->
    <title>CB042933-B125-49E5-9633-259727718731</title>
    <desc>Created with sketchtool.</desc>
    <defs>
        <polygon id="path-1" points="0 49.911194 30.8720874 49.911194 30.8720874 -5.68434189e-14 0 -5.68434189e-14"></polygon>
    </defs>
    <g id="02-Quienes-somos" stroke="none" stroke-width="1" fill="none" fill-rule="evenodd">
        <g id="2.3-Valores" transform="translate(-685.000000, -865.000000)">
            <g id="Innovacion" transform="translate(685.000000, 865.000000)">
                <g id="Page-1">
                    <path d="M12.9485044,46.8681045 L18.4361063,46.3434776 C18.4073636,46.8067612 18.3078927,47.2655672 18.1420578,47.6992985 C18.0287422,47.9958657 17.8812665,48.2851194 17.6600529,48.5139254 C17.4004655,48.7821343 17.05465,48.9516866 16.7049218,49.0854179 C16.2758879,49.2497463 15.8220238,49.3698955 15.3622908,49.3585522 C14.5121985,49.3375075 13.6913005,48.830791 13.2967277,48.0836269 C13.0988393,47.708403 13.0052374,47.287806 12.9485044,46.8681045 Z" id="Fill-1" fill="#00758D" opacity="0.4"></path>
                    <path d="M8.35517718,35.5322537 L21.8344587,35.5322537 L21.8344587,31.132403 L24.9055655,28.2555373 C24.9055655,28.2555373 31.0480801,21.8249403 30.1949782,15.9021045 C29.3418762,9.9791194 28.6594248,0.671656716 15.0094927,0.671656716 C1.35971117,0.671656716 0.677259709,14.3788209 0.677259709,16.4097164 C0.677259709,18.4403134 2.89526456,26.5631493 8.35517718,31.3015075 L8.35517718,35.5322537 Z" id="Fill-3" fill="#00758D" opacity="0.4"></path>
                    <polygon id="Fill-5" fill="#00758D" opacity="0.4" points="8.26992718 41.2013433 22.6021602 41.2013433 22.6021602 37.9861194 8.26992718 37.9861194"></polygon>
                    <polygon id="Fill-7" fill="#00758D" opacity="0.4" points="22.0903442 46.1088657 9.63481505 46.1088657 8.44056262 43.4012537 22.6021451 43.5705075"></polygon>
                    <path d="M15.5213087,49.911194 C13.6614592,49.911194 12.0944544,48.4716418 11.953901,46.6340299 C11.9256097,46.2641791 12.2050612,45.9416418 12.5779641,45.9135821 C12.9475563,45.8856716 13.276066,46.1626866 13.3045078,46.5325373 C13.3917893,47.6738806 14.3654301,48.5679104 15.5213087,48.5679104 C16.7206777,48.5679104 17.6965757,47.6377612 17.7430757,46.4501493 C17.7576728,46.0795522 18.0679738,45.7929851 18.4461437,45.8049254 C18.819799,45.819403 19.1109883,46.1316418 19.0965417,46.5022388 C19.0217505,48.4138806 17.4512845,49.911194 15.5213087,49.911194" id="Fill-9" fill="#00758D"></path>
                    <mask id="mask-2" fill="white">
                        <use xlink:href="#path-1"></use>
                    </mask>
                    <g id="Clip-12"></g>
                    <path d="M9.03228641,40.2758209 L22.010301,40.2758209 L22.010301,38.7422388 L9.03228641,38.7422388 L9.03228641,40.2758209 Z M22.6876359,41.6191045 L8.35510194,41.6191045 C7.98114563,41.6191045 7.67791748,41.3185075 7.67791748,40.9474627 L7.67791748,38.070597 C7.67791748,37.6997015 7.98114563,37.3989552 8.35510194,37.3989552 L22.6876359,37.3989552 C23.0615922,37.3989552 23.3648204,37.6997015 23.3648204,38.070597 L23.3648204,40.9474627 C23.3648204,41.3185075 23.0615922,41.6191045 22.6876359,41.6191045 L22.6876359,41.6191045 Z" id="Fill-11" fill="#00758D" mask="url(#mask-2)"></path>
                    <path d="M9.13773155,44.1574925 C9.42485777,45.0461493 10.2657704,45.6910746 11.2558141,45.6910746 L19.786984,45.6910746 C20.7770277,45.6910746 21.6179403,45.0461493 21.9050665,44.1574925 L9.13773155,44.1574925 Z M19.786984,47.0343582 L11.2558141,47.0343582 C9.28310049,47.0343582 7.67802282,45.4424179 7.67802282,43.4858507 C7.67802282,43.1149552 7.98110049,42.814209 8.35520728,42.814209 L22.6875908,42.814209 C23.0615471,42.814209 23.3647752,43.1149552 23.3647752,43.4858507 C23.3647752,45.4424179 21.7596976,47.0343582 19.786984,47.0343582 L19.786984,47.0343582 Z" id="Fill-13" fill="#00758D" mask="url(#mask-2)"></path>
                    <path d="M9.17637621,34.8606119 L21.3279248,34.8606119 L21.3279248,31.132403 C21.3279248,30.9240448 21.4252888,30.7276269 21.5917257,30.6003134 C21.6704296,30.5398657 29.5177937,24.4152388 29.5177937,15.2249403 C29.5177937,11.3432985 28.2710218,7.86120896 26.006818,5.42046269 C23.5325364,2.75314925 19.9068908,1.34329851 15.5212937,1.34329851 C10.0868131,1.34329851 6.77207039,3.66523881 4.94833738,5.61314925 C2.6644199,8.05285075 1.35429369,11.3710597 1.35429369,14.7173284 C1.35429369,23.6192687 8.74854612,30.7452388 8.82318689,30.8161343 C8.94989563,30.9364328 9.02483738,31.1010597 9.03175971,31.274791 L9.17637621,34.8606119 Z M22.0051092,36.2038955 L8.52582767,36.2038955 C8.16240534,36.2038955 7.86369175,35.9192687 7.84924515,35.5591194 L7.68912864,31.593 C6.43949757,30.3419552 -7.52427184e-05,23.4688209 -7.52427184e-05,14.7173284 C-7.52427184e-05,7.58270149 5.43982282,1.49253731e-05 15.5212937,1.49253731e-05 C20.2955947,1.49253731e-05 24.2660024,1.55986567 27.0036335,4.51091045 C29.4982306,7.20031343 30.8721626,11.0053881 30.8721626,15.2249403 C30.8721626,20.3894179 28.5740995,24.5837463 26.6462306,27.1928507 C24.9737354,29.4565821 23.3137306,30.9277761 22.6822937,31.4519552 L22.6822937,35.5322537 C22.6822937,35.9031493 22.3790655,36.2038955 22.0051092,36.2038955 L22.0051092,36.2038955 Z" id="Fill-14" fill="#00758D" mask="url(#mask-2)"></path>
                    <path d="M9.70146505,17.0750746 C9.67377573,17.0750746 9.64533398,17.078806 9.61644078,17.0870149 C9.2256301,17.1956716 8.73173689,17.8840299 8.84685825,18.7150746 C8.97672718,19.650597 9.78844563,20.37 11.1411592,20.8140299 C10.890601,19.5085075 10.6084408,18.411194 10.2936252,17.6928358 C10.188135,17.4525373 9.97865922,17.0750746 9.70146505,17.0750746 M20.2860087,17.0750746 C20.0088146,17.0750746 19.7993388,17.4525373 19.6938485,17.6928358 C19.379033,18.411194 19.0967223,19.5089552 18.8463146,20.8140299 C20.1991786,20.3701493 21.0107466,19.6507463 21.1406155,18.7150746 C21.2558874,17.8840299 20.7618437,17.1956716 20.3711835,17.0870149 C20.3421398,17.078806 20.3136981,17.0750746 20.2860087,17.0750746 M16.6191301,36.2038806 C16.6072417,36.2038806 16.5953534,36.2035821 16.5831641,36.2029851 C16.2096592,36.1835821 15.922834,35.8676119 15.9422466,35.4973134 C15.964067,35.0820896 16.3446447,28.0234328 17.1825476,22.5408955 C16.5405767,22.6198507 15.8215573,22.6643284 15.0161592,22.6658209 L15.0093874,22.6658209 L14.9779359,22.6658209 L14.9713146,22.6658209 C14.1659165,22.6643284 13.4468971,22.6198507 12.8049262,22.5408955 C13.6428291,28.0234328 14.0234068,35.0820896 14.0452272,35.4973134 C14.0646398,35.8676119 13.7778146,36.1835821 13.4041592,36.2029851 C13.0359214,36.2201493 12.7122272,35.9377612 12.6926641,35.5671642 C12.6872466,35.4631343 12.2741641,27.7923881 11.3978874,22.2871642 C8.26839223,21.5167164 7.62566893,19.7662687 7.5051301,18.898209 C7.31235825,17.5076119 8.09533398,16.1149254 9.25061068,15.7935821 C9.97670291,15.5914925 10.9595233,15.8431343 11.5355816,17.1573134 C11.9330136,18.0638806 12.2786786,19.4873134 12.5754359,21.149403 C13.2940039,21.2625373 14.1042175,21.321791 14.9937369,21.3225373 C15.8834068,21.321791 16.6933194,21.2625373 17.4120379,21.149403 C17.7087951,19.4873134 18.0544602,18.0638806 18.4517417,17.1573134 C19.0279505,15.8432836 20.0104699,15.5914925 20.7368631,15.7935821 C21.8922903,16.1149254 22.675266,17.5076119 22.4823437,18.898209 C22.3619553,19.7664179 21.7196835,21.5168657 18.5894359,22.2871642 C17.7130087,27.7926866 17.3002272,35.4631343 17.2948097,35.5671642 C17.2758485,35.9258209 16.9769845,36.2038806 16.6191301,36.2038806" id="Fill-15" fill="#00758D" mask="url(#mask-2)"></path>
                </g>
            </g>
        </g>
    </g>
</svg>

<svg width="31" height="50" viewBox="0 0 31 50" xmlns="http://www.w3.org/2000/svg" xmlns:xlink="http://www.w3.org/1999/xlink"><title>CB042933-B125-49E5-9633-259727718731</title><defs><path id="a" d="M0 49.911h30.872V0H0z"/></defs><g fill="none" fill-rule="evenodd"><path d="M12.949 46.868l5.487-.525a4.601 4.601 0 0 1-.294 1.356c-.113.297-.26.586-.482.815-.26.268-.605.438-.955.571-.43.165-.883.285-1.343.274a2.452 2.452 0 0 1-2.065-1.275c-.198-.376-.292-.796-.348-1.216zM8.355 35.532h13.48v-4.4l3.07-2.876s6.143-6.431 5.29-12.354C29.342 9.98 28.659.672 15.009.672S.677 14.379.677 16.41c0 2.03 2.218 10.153 7.678 14.892v4.23zm-.085 5.669h14.332v-3.215H8.27zm13.82 4.908H9.635L8.44 43.4l14.161.17z" fill="#00758D" opacity=".4"/><path d="M15.521 49.911c-1.86 0-3.427-1.44-3.567-3.277a.678.678 0 0 1 1.35-.101c.088 1.14 1.061 2.035 2.217 2.035 1.2 0 2.176-.93 2.222-2.118a.674.674 0 0 1 .703-.645.674.674 0 0 1 .65.697 3.553 3.553 0 0 1-3.575 3.41" fill="#00758D"/><mask id="b" fill="#fff"><use xlink:href="#a"/></mask><path d="M9.032 40.276H22.01v-1.534H9.032v1.534zm13.656 1.343H8.355a.674.674 0 0 1-.677-.672v-2.876c0-.371.303-.672.677-.672h14.333c.374 0 .677.3.677.672v2.876a.674.674 0 0 1-.677.672zm-13.55 2.538a2.225 2.225 0 0 0 2.118 1.534h8.531c.99 0 1.83-.645 2.118-1.534H9.138zm10.649 2.877h-8.531c-1.973 0-3.578-1.592-3.578-3.548 0-.371.303-.672.677-.672h14.333c.374 0 .677.301.677.672 0 1.956-1.605 3.548-3.578 3.548zM9.176 34.86h12.152v-3.728a.67.67 0 0 1 .264-.532c.078-.06 7.926-6.185 7.926-15.375 0-3.882-1.247-7.364-3.511-9.805-2.474-2.667-6.1-4.077-10.486-4.077-5.434 0-8.749 2.322-10.573 4.27a13.457 13.457 0 0 0-3.594 9.104c0 8.902 7.395 16.028 7.47 16.1a.67.67 0 0 1 .208.458l.144 3.586zm12.83 1.344H8.525a.675.675 0 0 1-.677-.645l-.16-3.966C6.44 30.342 0 23.469 0 14.717 0 7.583 5.44 0 15.522 0c4.775 0 8.745 1.56 11.483 4.51 2.494 2.69 3.868 6.495 3.868 10.715 0 5.164-2.298 9.359-4.226 11.968-1.672 2.264-3.332 3.735-3.964 4.259v4.08a.675.675 0 0 1-.677.672z" fill="#00758D" mask="url(#b)"/><path d="M9.701 17.075a.31.31 0 0 0-.085.012c-.39.109-.884.797-.77 1.628.13.936.942 1.655 2.295 2.099-.25-1.305-.533-2.403-.847-3.121-.106-.24-.315-.618-.593-.618m10.585 0c-.277 0-.487.378-.592.618-.315.718-.597 1.816-.848 3.121 1.353-.444 2.165-1.163 2.295-2.099.115-.831-.38-1.52-.77-1.628a.312.312 0 0 0-.085-.012m-3.667 19.129l-.036-.001a.674.674 0 0 1-.64-.706c.021-.415.402-7.474 1.24-12.956-.642.079-1.361.123-2.167.125h-.045a18.057 18.057 0 0 1-2.166-.125c.838 5.482 1.218 12.541 1.24 12.956a.674.674 0 0 1-.64.706.68.68 0 0 1-.712-.636c-.006-.104-.419-7.775-1.295-13.28-3.13-.77-3.772-2.52-3.893-3.389-.193-1.39.59-2.783 1.746-3.104.726-.203 1.709.05 2.285 1.363.397.907.743 2.33 1.04 3.992.718.114 1.528.173 2.418.174.89-.001 1.7-.06 2.418-.174.297-1.662.642-3.085 1.04-3.992.576-1.314 1.558-1.566 2.285-1.363 1.155.32 1.938 1.714 1.745 3.104-.12.868-.762 2.619-3.893 3.39-.876 5.505-1.289 13.175-1.294 13.28a.675.675 0 0 1-.676.636" fill="#00758D" mask="url(#b)"/></g></svg>
